svg/u1f42e.svg

<svg viewBox="0 0 128 128" xmlns="http://www.w3.org/2000/svg">
  <defs/>
  <path d="M74.69,26.69 C74.69,26.69 80.38,12.34 86.94,13.6 C94.26,15.01 90.18,32.32 90.18,32.32 L74.69,26.69 Z" fill="#FFB903"/>
  <path d="M55.27,24.29 C55.27,24.29 48.37,10.63 42.6,12.61 C36.83,14.59 41.05,32.6 41.05,32.6 L55.27,24.29 Z" fill="#FFB903"/>
  <path d="M47.94,25.28 C47.94,25.28 49.91,22.89 66.38,23.45 C82.85,24.01 92,29.79 92,29.79 C92,29.79 97.68,25.44 103.22,23.55 C111.45,20.75 122.52,25.46 123.39,27.26 C124.06,28.63 120.29,40.83 115.37,45 C109.88,49.65 103.97,49.36 103.97,49.36 C103.97,49.36 102.67,57.91 102.42,64.28 C102.28,67.94 102.78,71.76 103.41,73.71 C104.68,77.65 105.4,80.36 106.03,85.19 C106.56,89.22 106.65,93.13 106.65,93.13 L41.33,76.66 L47.94,25.28 Z" fill="#DFDFDF"/>
  <path d="M38.79,75.54 C38.79,75.54 49.02,72.82 51.74,71.36 C54.06,70.12 67.09,64.41 68.07,46.82 C69.05,29.23 56.63,24.11 54.94,23.68 C53.25,23.26 47.15,24.9 43.58,26.68 C42.06,27.44 38.79,29.64 38.79,29.64 C38.79,29.64 32.31,22.88 22.18,21.9 C12.05,20.91 4.44,26.26 4.3,26.97 C4.16,27.67 8.1,41.5 15.31,46.31 C17.41,47.71 20.11,48.34 21.96,48.59 C26.8,49.25 28.65,48.65 28.65,48.65 C28.65,48.65 27.95,56.11 27.81,59.91 C27.67,63.71 27.59,69.08 27.15,72.96 C26.87,75.45 23.49,82.06 23.4,86.94 C23.34,90.18 38.79,75.54 38.79,75.54 Z" fill="#BC8954"/>
  <path d="M65.74,74.41 C77.9,74.7 80.73,72.58 89.02,73.14 C97.31,73.7 107.87,82.43 106.87,94.96 C105.87,107.49 95.45,116.5 84.31,119.03 C73.17,121.56 48.32,121.85 36.61,115.51 C24.85,109.15 22.33,100.59 22.19,92.56 C22.05,84.53 28.04,73 41.03,71.6 C54.02,70.2 53.74,74.13 65.74,74.41 Z" fill="#FFD3B0"/>
  <path d="M97.92,39.64 C95.84,36 97.92,30.25 104.49,28.75 C111.06,27.25 117.63,30.25 117.63,30.25 C117.63,30.25 115.62,37.95 111.06,40.95 C107.21,43.49 100.92,44.89 97.92,39.64 Z" fill="#FFD3B0"/>
  <path d="M25.09,29.13 C19.24,27.31 11.63,29.68 11.63,29.68 C11.63,29.68 11.87,33.06 14.27,36.33 C15.71,38.29 17.86,40.64 21.26,41.76 C29.24,44.39 32.22,39.64 32.87,37.48 C33.54,35.32 32.32,31.38 25.09,29.13 Z" fill="#FFD3B0"/>
  <path d="M50.491,50.507 C53.427,50.93 55.369,54.308 54.829,58.053 C54.29,61.797 51.473,64.49 48.537,64.067 C45.602,63.644 43.659,60.266 44.199,56.521 C44.738,52.777 47.555,50.084 50.491,50.507 Z" fill="#0A0A0A"/>
  <path d="M88.946,56.909 C89.529,60.653 87.626,64.057 84.695,64.514 C81.765,64.97 78.917,62.306 78.334,58.562 C77.75,54.818 79.653,51.414 82.584,50.957 C85.514,50.501 88.363,53.165 88.946,56.909 Z" fill="#0A0A0A"/>
  <path d="M73.14,99.52 C70.14,97.17 71.82,90.97 76.8,87.51 C82.06,83.85 87.53,85.19 88.53,87.42 C89.84,90.33 88.34,92.11 86.75,93.33 C85.24,94.48 83.18,94.27 81.87,95.02 C80.56,95.77 79.99,97.74 78.21,99.34 C76.56,100.81 74.14,100.29 73.14,99.52 Z" fill="#2E2F31"/>
  <path d="M40.48,87.88 C41.42,83.66 48.15,83.82 52.96,87.5 C58.04,91.39 59.06,96.89 56.9,98.76 C54.44,100.9 52.06,99.83 50.58,98.55 C49.14,97.31 48.63,96.31 47.51,95.28 C46.4,94.26 44.41,93.96 42.35,92.75 C40.45,91.64 40.08,89.68 40.48,87.88 Z" fill="#2E2F31"/>
</svg>

<svg viewBox="0 0 128 128" xmlns="http://www.w3.org/2000/svg">
  <path d="M74.69,26.69c0,0,5.69-14.35,12.25-13.09c7.32,1.41,3.24,18.72,3.24,18.72L74.69,26.69z" fill="#FFB903"/>
  <path d="M55.27,24.29c0,0-6.9-13.66-12.67-11.68S41.05,32.6,41.05,32.6L55.27,24.29z" fill="#FFB903"/>
  <path d="M47.94,25.28c0,0,1.97-2.39,18.44-1.83c16.47,0.56,25.62,6.34,25.62,6.34s5.68-4.35,11.22-6.24 c8.23-2.8,19.3,1.91,20.17,3.71c0.67,1.37-3.1,13.57-8.02,17.74c-5.49,4.65-11.4,4.36-11.4,4.36s-1.3,8.55-1.55,14.92 c-0.14,3.66,0.36,7.48,0.99,9.43c1.27,3.94,1.99,6.65,2.62,11.48c0.53,4.03,0.62,7.94,0.62,7.94L41.33,76.66L47.94,25.28z" fill="#DFDFDF"/>
  <path d="M38.79,75.54c0,0,10.23-2.72,12.95-4.18c2.32-1.24,15.35-6.95,16.33-24.54S56.63,24.11,54.94,23.68 c-1.69-0.42-7.79,1.22-11.36,3c-1.52,0.76-4.79,2.96-4.79,2.96s-6.48-6.76-16.61-7.74C12.05,20.91,4.44,26.26,4.3,26.97 C4.16,27.67,8.1,41.5,15.31,46.31c2.1,1.4,4.8,2.03,6.65,2.28c4.84,0.66,6.69,0.06,6.69,0.06s-0.7,7.46-0.84,11.26 s-0.22,9.17-0.66,13.05c-0.28,2.49-3.66,9.1-3.75,13.98C23.34,90.18,38.79,75.54,38.79,75.54z" fill="#BC8954"/>
  <path d="M65.74,74.41c12.16,0.29,14.99-1.83,23.28-1.27s18.85,9.29,17.85,21.82 c-1,12.53-11.42,21.54-22.56,24.07c-11.14,2.53-35.99,2.82-47.7-3.52c-11.76-6.36-14.28-14.92-14.42-22.95S28.04,73,41.03,71.6 S53.74,74.13,65.74,74.41z" fill="#FFD3B0"/>
  <path d="M97.92,39.64c-2.08-3.64,0-9.39,6.57-10.89c6.57-1.5,13.14,1.5,13.14,1.5s-2.01,7.7-6.57,10.7 C107.21,43.49,100.92,44.89,97.92,39.64z" fill="#FFD3B0"/>
  <path d="M25.09,29.13c-5.85-1.82-13.46,0.55-13.46,0.55s0.24,3.38,2.64,6.65c1.44,1.96,3.59,4.31,6.99,5.43 c7.98,2.63,10.96-2.12,11.61-4.28C33.54,35.32,32.32,31.38,25.09,29.13z" fill="#FFD3B0"/>
  <ellipse cx="49.52" cy="57.29" fill="#0A0A0A" rx="6.85" ry="5.37" transform="matrix(0.1426 -0.9898 0.9898 0.1426 -14.253 98.1324)"/>
  <ellipse cx="83.64" cy="57.73" fill="#0A0A0A" rx="5.37" ry="6.86" transform="matrix(0.9881 -0.1539 0.1539 0.9881 -7.8897 13.5647)"/>
  <path d="M73.14,99.52c-3-2.35-1.32-8.55,3.66-12.01c5.26-3.66,10.73-2.32,11.73-0.09 c1.31,2.91-0.19,4.69-1.78,5.91c-1.51,1.15-3.57,0.94-4.88,1.69c-1.31,0.75-1.88,2.72-3.66,4.32 C76.56,100.81,74.14,100.29,73.14,99.52z" fill="#2E2F31"/>
  <path d="M40.48,87.88c0.94-4.22,7.67-4.06,12.48-0.38c5.08,3.89,6.1,9.39,3.94,11.26 c-2.46,2.14-4.84,1.07-6.32-0.21c-1.44-1.24-1.95-2.24-3.07-3.27c-1.11-1.02-3.1-1.32-5.16-2.53 C40.45,91.64,40.08,89.68,40.48,87.88z" fill="#2E2F31"/>
</svg>
